img/instagram.svg

<svg width="25" height="25" viewBox="0 0 25 25" fill="none" xmlns="http://www.w3.org/2000/svg">
<path d="M21.3379 0H3.66211C1.64299 0 0 1.64299 0 3.66211V21.3379C0 23.357 1.64299 25 3.66211 25H21.3379C23.357 25 25 23.357 25 21.3379V3.66211C25 1.64299 23.357 0 21.3379 0ZM12.5488 19.043C8.91399 19.043 5.95703 16.086 5.95703 12.4512C5.95703 8.81634 8.91399 5.85938 12.5488 5.85938C16.1837 5.85938 19.1406 8.81634 19.1406 12.4512C19.1406 16.086 16.1837 19.043 12.5488 19.043ZM19.873 7.32422C18.6615 7.32422 17.6758 6.3385 17.6758 5.12695C17.6758 3.91541 18.6615 2.92969 19.873 2.92969C21.0846 2.92969 22.0703 3.91541 22.0703 5.12695C22.0703 6.3385 21.0846 7.32422 19.873 7.32422Z" fill="#198C36"/>
<path d="M19.873 4.39453C19.4689 4.39453 19.1406 4.72279 19.1406 5.12695C19.1406 5.53112 19.4689 5.85938 19.873 5.85938C20.2772 5.85938 20.6055 5.53112 20.6055 5.12695C20.6055 4.72279 20.2772 4.39453 19.873 4.39453Z" fill="#198C36"/>
<path d="M12.5488 7.32422C9.72214 7.32422 7.42188 9.62448 7.42188 12.4512C7.42188 15.2779 9.72214 17.5781 12.5488 17.5781C15.3755 17.5781 17.6758 15.2779 17.6758 12.4512C17.6758 9.62448 15.3755 7.32422 12.5488 7.32422Z" fill="#198C36"/>
</svg>

<svg width="25" height="25" fill="none" xmlns="http://www.w3.org/2000/svg"><path d="M21.338 0H3.662A3.666 3.666 0 0 0 0 3.662v17.676A3.666 3.666 0 0 0 3.662 25h17.676A3.666 3.666 0 0 0 25 21.338V3.662A3.666 3.666 0 0 0 21.338 0Zm-8.79 19.043a6.6 6.6 0 0 1-6.591-6.592 6.6 6.6 0 0 1 6.592-6.592 6.6 6.6 0 0 1 6.592 6.592 6.6 6.6 0 0 1-6.592 6.592Zm7.325-11.719a2.2 2.2 0 0 1-2.197-2.197 2.2 2.2 0 0 1 2.197-2.197 2.2 2.2 0 0 1 2.197 2.197 2.2 2.2 0 0 1-2.197 2.197Z" fill="#198C36"/><path d="M19.873 4.395a.733.733 0 1 0 .001 1.465.733.733 0 0 0-.001-1.465ZM12.549 7.324a5.133 5.133 0 0 0-5.127 5.127c0 2.827 2.3 5.127 5.127 5.127s5.127-2.3 5.127-5.127-2.3-5.127-5.127-5.127Z" fill="#198C36"/></svg>
